X: 12724
T: Father Kelly's
R: reel
M: 4/4
K: Gmajor
|:BddB cBAF|G2BG DGBG|AGAB cBAG|EAAG ABce|
d2Bd cBAF|G2BG DGBG|AGAB cdef|gedc BGG2:|
|:dggf gfed|eaa^g a=gfg|fdad bdad|gfge dcBc|
dggf gfed|eaa^g a=gef|g3e dcBc|dBcA BGG2:|

